X: 21161
T: BOTHWELL CASTLE
Q: "Slow"
%R: air
B: "Edinburgh Repository of Music" v.1 p.116 #1
F: http://digital.nls.uk/special-collections-of-printed-music/pageturner.cfm?id=87776133
Z: 2015 John Chambers <jc:trillian.mit.edu>
N: Added '3' to unlabelled triplets.
M: C|
L: 1/16
K: G
d3c |\
B3c d3c B2g2(g2b2) |\
B3c dBAG FAdf a2b2 |\
B3c d>cd>c B2g2 d2bd' |\
(c'bag) (fe'd'c') b2g2g2 :|
d2 |\
b2- (3bag (3fed (3cBA G2d2B2{f}g2 |\
d>Bg>d b>g (3(dBG) (F2A2).A2.d2 |\
b3a (gfg)e ({e}d^c)de (fde)f |\
(gef)g (a>fg)>e d2g2g2 ga |
bgfg afef ge^de f=d^cd |\
e=cBc dGeG F2A2 A/G/A/B/ c/d/e/f/ |\
g4 e4 A3d {c}B2(3GBd |\
c3B (3ABG (3FGE D2G2G2 |]
